!!!COM: Johannes Brahms
!!!CNT: Deutscher
!!!TXO: Deutsche
!!!OTL: Der Fru2hling
!!!OPS: Op.6
!!!ONM: No.2
!!!LYR: J.B.Rousseau
!!!ONB: Original key: E Major
!!!ENC: Ayako Kataoka        
!!!EED: Leigh VanHandel
!!!YOR: C.F. Peters, Brahms Lieder fu2r eine Singstimme mit Klavierbegleitung, Band III, ausgabe fu2r tiefere Stimme
!!!ODT: 1852/
!!NB: Vocal melody and text only encoded.
!!NB: First stanza only encoded.
**kern	**silbe
*clefG2	*
*k[b-e-a-d-g-]	*
*M6/8	*
*MM[con moto]	*
=9	=9
4r	.
8r	.
4r	.
{8e-	{Es
=10	=10
4.f	lockt
4r	.
8g-	und
=11	=11
4.gn	sa2u-
4r	.
8a-	-selt
=12	=12
4.dd-	um
4.a-	den
=13	=13
4.f}	Baum:}
4r	.
{8a-	{wach
=14	=14
4.f	auf
4r	.
8g-	aus
=15	=15
4.gn	dei-
4r	.
8a-	-nem
=16	=16
4.cc	Schlaf
4.b-	und
=17	=17
4.a-}	Traum,}
4r	.
8r	.
=18	=18
4r	.
8r	.
4r	.
{8a-	{der
=19	=19
[4.a-	Win-
4a-]	|
8a-	-ter
=20	=20
[4.a-	ist
4a-]	|
8b-	zer-
=21	=20
4.cc-	-ron-
4g-}	-nen,}
8r	.
=22	=22
4r	.
8r	.
4r	.
{8bn	{der
=23	=23
[4.bn	Win-
4b]	|
8b-	-ter
=24	=24
[4.bn	ist
4bn]	|
8cc#	zer-
=25	=25
4.ddn	-ron-
4an}	-nen.}
8r	.
=26	=26
4r	.
8r	.
4r	.
{8f#	{Da
=27	=27
4en	schla2gt
8e-	er
4fn	frisch
8f	den
=28	=28
4f#	Blick
8f#	em-
4gn}	-por,}
{8d#	{die
=29	=29
4en	Au-
8e	-gen
4fn	se-
8f	-hen
=30	=30
4g-	hell
8g-	her-
[4.ccn	-vor
=31	=31
2.cc_	|
=32	=32
4cc]}	|}
8r	.
{(4dd-	{aus
8cc)	|
=33	=33
4cc	gold-
8b-	-ne
4b-	Licht
8a-	der
=34	=34
(4a-	Son-
8gn)	|
4g-}	-nen,}
8r	.
=36	=36
4r	.
8r	.
{(4a-	{ans
8an)	|
=37	=37
(4.an	gold-
4.b-	-ne
=38	=38
4.cc	Licht
4.dd-)	der
=39	=39
(2.dd-	Son-
=40	=40
2.cc)	|
=41	=41
4.dd-}	-nen.}
*-	*-
